icons/svg/emergency/police2.svg

<?xml version="1.0" encoding="UTF-8" standalone="no"?>
<!-- Created with Inkscape (http://www.inkscape.org/) -->

<svg
   xmlns:dc="http://purl.org/dc/elements/1.1/"
   xmlns:cc="http://creativecommons.org/ns#"
   xmlns:rdf="http://www.w3.org/1999/02/22-rdf-syntax-ns#"
   xmlns:svg="http://www.w3.org/2000/svg"
   xmlns="http://www.w3.org/2000/svg"
   xmlns:xlink="http://www.w3.org/1999/xlink"
   xmlns:sodipodi="http://sodipodi.sourceforge.net/DTD/sodipodi-0.dtd"
   xmlns:inkscape="http://www.inkscape.org/namespaces/inkscape"
   version="1.0"
   width="580"
   height="580"
   id="svg2"
   sodipodi:version="0.32"
   inkscape:version="0.47 r22583"
   sodipodi:docname="amenity_police2.svg"
   inkscape:output_extension="org.inkscape.output.svg.inkscape">
  <metadata
     id="metadata1976">
    <rdf:RDF>
      <cc:Work
         rdf:about="">
        <dc:format>image/svg+xml</dc:format>
        <dc:type
           rdf:resource="http://purl.org/dc/dcmitype/StillImage" />
        <cc:license
           rdf:resource="http://web.resource.org/cc/PublicDomain" />
        <dc:language>en</dc:language>
      </cc:Work>
    </rdf:RDF>
  </metadata>
  <sodipodi:namedview
     inkscape:window-height="949"
     inkscape:window-width="1280"
     inkscape:pageshadow="2"
     inkscape:pageopacity="0.0"
     guidetolerance="10.0"
     gridtolerance="10.0"
     objecttolerance="10.0"
     borderopacity="1.0"
     bordercolor="#666666"
     pagecolor="#ffffff"
     id="base"
     inkscape:zoom="0.79627887"
     inkscape:cx="212.86205"
     inkscape:cy="266.79381"
     inkscape:window-x="1280"
     inkscape:window-y="0"
     inkscape:current-layer="svg2"
     showgrid="false"
     inkscape:window-maximized="1" />
  <defs
     id="defs4">
    <inkscape:perspective
       sodipodi:type="inkscape:persp3d"
       inkscape:vp_x="0 : 290 : 1"
       inkscape:vp_y="0 : 1000 : 0"
       inkscape:vp_z="580 : 290 : 1"
       inkscape:persp3d-origin="290 : 193.33333 : 1"
       id="perspective3653" />
    <marker
       viewBox="0 0 10 10"
       refY="5"
       refX="10"
       orient="auto"
       markerWidth="4"
       markerUnits="strokeWidth"
       markerHeight="3"
       id="ArrowStart">
      <path
         id="path2111"
         d="M 10 0 L 0 5 L 10 10 z" />
    </marker>
    <marker
       viewBox="0 0 10 10"
       refY="5"
       refX="0"
       orient="auto"
       markerWidth="4"
       markerUnits="strokeWidth"
       markerHeight="3"
       id="ArrowEnd">
      <path
         id="path2108"
         d="M 0 0 L 10 5 L 0 10 z" />
    </marker>
    <inkscape:perspective
       id="perspective2512"
       inkscape:persp3d-origin="177.51199 : 145.02 : 1"
       inkscape:vp_z="355.02399 : 217.53 : 1"
       inkscape:vp_y="0 : 1000 : 0"
       inkscape:vp_x="0 : 217.53 : 1"
       sodipodi:type="inkscape:persp3d" />
    <inkscape:perspective
       id="perspective3305"
       inkscape:persp3d-origin="372.04724 : 350.78739 : 1"
       inkscape:vp_z="744.09448 : 526.18109 : 1"
       inkscape:vp_y="0 : 1000 : 0"
       inkscape:vp_x="0 : 526.18109 : 1"
       sodipodi:type="inkscape:persp3d" />
    <inkscape:perspective
       id="perspective3354"
       inkscape:persp3d-origin="372.04724 : 350.78739 : 1"
       inkscape:vp_z="744.09448 : 526.18109 : 1"
       inkscape:vp_y="0 : 1000 : 0"
       inkscape:vp_x="0 : 526.18109 : 1"
       sodipodi:type="inkscape:persp3d" />
  </defs>
  <g
     id="g1327">
    <path
       d="M 66.275,1.768 C 24.94,1.768 1.704,23.139 1.704,66.804 L 1.704,516.927 C 1.704,557.771 22.6,579.156 63.896,579.156 L 515.92,579.156 C 557.227,579.156 578.149,558.842 578.149,516.927 L 578.149,66.804 C 578.149,24.203 557.227,1.768 514.628,1.768 C 514.624,1.768 66.133,1.625 66.275,1.768 z"
       style="fill:#111111;stroke:#eeeeee;stroke-width:3.40799999"
       id="path1329" />
  </g>
  <g
     id="g2117"
     transform="matrix(1.1975036,0,0,1.1975036,80.128205,34.575832)"
     style="fill:#000000">
    <g
       id="g2119"
       style="fill:#000000">
      <g
         id="g2121"
         style="fill:#000000">
        <path
           id="path2125"
           style="fill:#000000;stroke:none"
           d="" />
      </g>
      <g
         id="g2127"
         style="fill:#000000">
        <path
           id="path2131"
           style="fill:#000000;stroke:none"
           d="" />
      </g>
    </g>
  </g>
  <image
     sodipodi:absref="/home/brian/webroot/mapicons/svg/pastedpic_10102008_233747.png"
     xlink:href="pastedpic_10102008_233747.png"
     width="239"
     height="190"
     id="image3356"
     x="-1801.1931"
     y="573.99469" />
  <path
     style="fill:#ffffff;fill-opacity:1;stroke:none"
     d="m 178.55078,226.45042 c 1.13144,8.8371 8.46479,15.38618 16.12978,14.40482 l 7.36403,-0.94286 c 7.66503,-0.98136 13.11183,-9.16674 11.9804,-18.00385 l -3.86245,-30.16762 c -1.13144,-8.8371 -8.46476,-15.38626 -16.12983,-14.40479 l -7.36398,0.94284 c -7.66503,0.98135 -13.11185,9.16674 -11.98042,18.00383 l 3.86247,30.16763 z m 14.31001,-2.18259 c -3.93581,-3.51488 -6.69751,-25.08498 -3.77415,-29.47806 2.9233,-4.39311 2.83007,-4.38119 6.76589,-0.86627 3.93581,3.51487 6.6975,25.08498 3.77414,29.47807 -2.92329,4.39311 -2.83006,4.38116 -6.76588,0.86626 z"
     id="rect3389"
     sodipodi:nodetypes="cccccccccczzzz" />
  <path
     sodipodi:nodetypes="cccccccccczzzz"
     id="path3395"
     d="m 259.93524,142.03746 c 7.60381,5.44209 17.71418,4.87846 22.23787,-1.23975 l 4.34607,-5.87792 c 4.52371,-6.11823 1.9559,-15.75568 -5.64791,-21.19783 L 254.91376,95.143927 c -7.60384,-5.44209 -17.71421,-4.878534 -22.23789,1.239758 l -4.34605,5.877905 c -4.52375,6.11821 -1.95593,15.75568 5.64791,21.19784 l 25.95751,18.57803 z m 8.17482,-11.66981 c -5.4262,0.30249 -23.98607,-12.98089 -25.3642,-18.15341 -1.37815,-5.17241 -1.43317,-5.09802 3.99307,-5.40052 5.42623,-0.30251 23.98606,12.98091 25.36421,18.1534 1.37813,5.17244 1.43318,5.09804 -3.99308,5.40053 z"
     style="fill:#ffffff;fill-opacity:1;stroke:none" />
  <path
     style="fill:#ffffff;fill-opacity:1;stroke:none"
     d="m 235.90887,119.66591 c 8.87648,-0.76323 15.72468,-7.81806 15.06273,-15.51721 l -0.36157,7.0331 c -0.66197,-7.69921 -8.6139,-13.48154 -17.49039,-12.718358 l -30.30208,2.605328 c -8.87647,0.7632 -15.72479,7.81798 -15.06272,15.51722 l 0.36155,-7.03313 c 0.66196,7.69921 8.61388,13.4815 17.49038,12.71834 l 30.3021,-2.60529 z m -1.58597,-14.38838 c -3.67543,3.7863 -25.34163,5.64915 -29.60948,2.54572 -4.26778,-3.10333 -3.98535,11.42022 -0.30991,7.63389 3.67542,-3.78631 25.34167,-5.64916 29.60946,-2.54574 4.26781,3.10336 3.98537,-11.42022 0.30993,-7.63387 z"
     id="path3397"
     sodipodi:nodetypes="cccccccccczzzz" />
  <path
     style="fill:#ffffff;fill-opacity:1;stroke:none"
     d="m 207.30775,126.38134 c 5.59935,-7.48875 5.24652,-17.60867 -0.77608,-22.25888 l -5.78609,-4.467607 c -6.02262,-4.650222 -15.7115,-2.283797 -21.31091,5.204947 l -19.11491,25.56475 c -5.59936,7.48876 -5.24662,17.60868 0.77609,22.25888 l 5.78606,4.46759 c 6.02262,4.65026 15.7115,2.28382 21.31092,-5.20494 l 19.11492,-25.56474 z m -11.49693,-8.41621 c 0.18935,5.43131 -13.4779,23.71034 -18.67803,24.98038 -5.19999,1.27007 -5.12676,1.32662 -5.31613,-4.10473 -0.18936,-5.43136 13.47793,-23.71035 18.67801,-24.98041 5.20004,-1.27005 5.1268,-1.32663 5.31615,4.10476 z"
     id="path3534"
     sodipodi:nodetypes="cccccccccczzzz" />
  <path
     sodipodi:nodetypes="cccccccccczzzz"
     id="path3536"
     d="m 178.13476,185.55291 c 2.94996,8.40668 11.48811,13.28199 18.77977,10.72335 l -6.90153,1.40149 c 7.29173,-2.55867 10.91132,-11.70018 7.96139,-20.10689 L 187.9041,148.87257 c -2.94992,-8.40667 -11.48805,-13.28211 -18.77976,-10.72335 l 6.90154,-1.4015 c -7.29172,2.55868 -10.91128,11.70014 -7.96139,20.10687 l 10.07027,28.69832 z m 13.53998,-5.11956 c -4.5824,-2.61661 -11.78276,-23.13609 -9.84008,-28.04238 1.9426,-4.90622 -12.05293,-1.01544 -7.47052,1.60115 4.5824,2.61658 11.78277,23.1361 9.8401,28.04235 -1.94264,4.90626 12.05292,1.01546 7.4705,-1.60112 z"
     style="fill:#ffffff;fill-opacity:1;stroke:none" />
  <g
     id="g3540"
     transform="matrix(0.74204582,0,0,0.74204582,67.476143,46.031302)">
    <g
       transform="matrix(1.0907181,-0.2914957,0.2914957,1.0907181,-98.8285,72.452649)"
       id="g3490">
      <g
         transform="matrix(0.9826633,-0.1853992,0.1853992,0.9826633,-60.17152,31.061258)"
         id="g3500">
        <path
           sodipodi:nodetypes="cccsszzzssc"
           id="path3313"
           d="m 137.92957,221.66212 c -7.58542,0.60458 -11.32119,13.81445 -12.99324,20.91531 -0.79855,11.74113 9.76035,31.84764 15.41118,30.63495 40.72202,-3e-5 66.02183,27.71772 66.02183,68.43978 4e-5,40.72201 -27.11324,70.25322 -67.83529,70.25322 -16.18798,-3e-5 -24.46001,-14.39283 -40.587827,-11.81862 -15.673332,2.50166 -23.662466,9.76279 -28.251302,18.06731 -4.857361,8.79047 -9.926486,22.86389 6.128076,35.08654 16.487744,12.55244 31.261093,13.74345 53.039363,13.74342 67.62255,6e-5 127.14539,-57.70923 127.14531,-125.33187 -4e-5,-67.62265 -50.45552,-119.98994 -118.0781,-119.99004 z"
           style="fill:#ffffff;fill-opacity:1;stroke:none" />
        <path
           sodipodi:nodetypes="csccssccc"
           id="path3325"
           d="m 133.09373,224.64754 c -64.403852,-4e-5 -117.1032,52.60083 -117.103104,117.00462 3.1e-5,47.37503 23.678013,91.92373 64.401738,110.29016 l 26.601846,-46.2725 c -30.109595,-5.8038 -45.895746,-25.45708 -45.895746,-61.65394 -6.2e-5,-43.94094 30.509229,-77.95879 74.450206,-77.95879 12.23459,3e-5 16.71534,4.92072 29.06145,9.41063 l 11.3262,-42.64562 c -13.2782,-5.25876 -27.74167,-8.17456 -42.84259,-8.17456 z"
           style="opacity:0.8;fill:#ffffff;fill-opacity:1;stroke:none" />
        <path
           sodipodi:nodetypes="ccsccscc"
           d="m 156.75706,289.14862 15.23845,10.68689 c 30.42126,23.19058 49.37576,21.86305 67.63242,-3.7246 18.25666,-25.58769 -19.43768,-82.55651 -19.43768,-82.55651 0,0 -0.55988,-0.3995 -0.55988,-0.3995 0,0 -66.13262,-17.11106 -84.38924,8.47659 -18.25666,25.58769 -13.34578,43.94302 18.47989,65.16529 l 15.06289,10.93293"
           style="fill:#ffffff;fill-opacity:1;fill-rule:evenodd;stroke:none"
           id="path3374" />
      </g>
    </g>
    <path
       d="m 187.12038,514.0683 c 0,19.4203 -15.74327,35.16356 -35.16356,35.16356 -19.4203,0 -35.16356,-15.74326 -35.16356,-35.16356 0,-19.4203 15.74326,-35.16356 35.16356,-35.16356 19.42029,0 35.16356,15.74326 35.16356,35.16356 z"
       sodipodi:ry="35.163559"
       sodipodi:rx="35.163559"
       sodipodi:cy="514.0683"
       sodipodi:cx="151.95682"
       id="path3538"
       style="fill:#ffffff;fill-opacity:1;stroke:none"
       sodipodi:type="arc" />
  </g>
  <g
     id="g3548"
     transform="matrix(-0.54186052,0.50697067,0.50697067,0.54186052,241.93057,-91.527701)">
    <g
       id="g3550"
       transform="matrix(1.0907181,-0.2914957,0.2914957,1.0907181,-98.8285,72.452649)">
      <g
         id="g3552"
         transform="matrix(0.9826633,-0.1853992,0.1853992,0.9826633,-60.17152,31.061258)">
        <path
           style="fill:#ffffff;fill-opacity:1;stroke:none"
           d="m 137.92957,221.66212 c -7.58542,0.60458 -11.32119,13.81445 -12.99324,20.91531 -0.79855,11.74113 9.76035,31.84764 15.41118,30.63495 40.72202,-3e-5 66.02183,27.71772 66.02183,68.43978 4e-5,40.72201 -27.11324,70.25322 -67.83529,70.25322 -16.18798,-3e-5 -24.46001,-14.39283 -40.587827,-11.81862 -15.673332,2.50166 -23.662466,9.76279 -28.251302,18.06731 -4.857361,8.79047 -9.926486,22.86389 6.128076,35.08654 16.487744,12.55244 31.261093,13.74345 53.039363,13.74342 67.62255,6e-5 127.14539,-57.70923 127.14531,-125.33187 -4e-5,-67.62265 -50.45552,-119.98994 -118.0781,-119.99004 z"
           id="path3554"
           sodipodi:nodetypes="cccsszzzssc" />
        <path
           style="opacity:0.8;fill:#ffffff;fill-opacity:1;stroke:none"
           d="m 133.09373,224.64754 c -64.403852,-4e-5 -117.1032,52.60083 -117.103104,117.00462 3.1e-5,47.37503 23.678013,91.92373 64.401738,110.29016 l 26.601846,-46.2725 c -30.109595,-5.8038 -45.895746,-25.45708 -45.895746,-61.65394 -6.2e-5,-43.94094 30.509229,-77.95879 74.450206,-77.95879 12.23459,3e-5 16.71534,4.92072 29.06145,9.41063 l 11.3262,-42.64562 c -13.2782,-5.25876 -27.74167,-8.17456 -42.84259,-8.17456 z"
           id="path3556"
           sodipodi:nodetypes="csccssccc" />
        <path
           id="path3558"
           style="fill:#ffffff;fill-opacity:1;fill-rule:evenodd;stroke:none"
           d="m 156.75706,289.14862 15.23845,10.68689 c 30.42126,23.19058 49.37576,21.86305 67.63242,-3.7246 18.25666,-25.58769 -19.43768,-82.55651 -19.43768,-82.55651 0,0 -0.55988,-0.3995 -0.55988,-0.3995 0,0 -66.13262,-17.11106 -84.38924,8.47659 -18.25666,25.58769 -13.34578,43.94302 18.47989,65.16529 l 15.06289,10.93293"
           sodipodi:nodetypes="ccsccscc" />
      </g>
    </g>
    <path
       sodipodi:type="arc"
       style="fill:#ffffff;fill-opacity:1;stroke:none"
       id="path3560"
       sodipodi:cx="151.95682"
       sodipodi:cy="514.0683"
       sodipodi:rx="35.163559"
       sodipodi:ry="35.163559"
       d="m 187.12038,514.0683 c 0,19.4203 -15.74327,35.16356 -35.16356,35.16356 -19.4203,0 -35.16356,-15.74326 -35.16356,-35.16356 0,-19.4203 15.74326,-35.16356 35.16356,-35.16356 19.42029,0 35.16356,15.74326 35.16356,35.16356 z" />
  </g>
  <path
     style="fill:none;stroke:#ffffff;stroke-width:16;stroke-linecap:round;stroke-linejoin:round;stroke-miterlimit:4;stroke-opacity:1;stroke-dasharray:none"
     d="M 287.6875,25.0625 C 272.41161,37.008643 256.01475,48.391322 237.11047,53.712259 201.20204,65.107791 160.7002,60.414033 127.75,42.4375 119.76442,41.891892 115.58812,50.31637 109.23306,53.702178 94.143447,66.235988 78.306382,78.103405 64.125,91.59375 c -2.587389,5.722936 3.816552,10.18596 4.764815,15.5784 13.563158,29.81377 28.3726,62.13252 22.391435,95.7341 -6.105692,42.81579 -32.442664,79.65745 -40.080591,122.14596 -8.492787,54.88025 16.152824,114.42702 63.657481,144.18714 55.0913,38.30318 122.89175,51.32536 180.01686,85.76065 7.67782,3.62806 13.56669,-4.8136 20.00415,-7.38842 54.4043,-32.98846 118.58948,-48.56028 168.99585,-88.64283 28.88568,-21.5948 48.32841,-54.80724 53.78039,-90.48785 5.74572,-33.51024 -0.65606,-68.54754 -16.90555,-98.2645 -15.51203,-33.18508 -33.4428,-68.04724 -30.00081,-105.80243 2.68903,-27.36665 15.23092,-52.46165 24.84472,-77.85147 0.10994,-6.795344 -8.17884,-8.262472 -11.77613,-12.651977 C 486.81365,61.01643 470.13483,46.86311 451.66745,36.163247 c -11.4803,2.505969 -20.74452,11.507531 -32.47995,13.618003 -43.525,14.40095 -94.32737,5.198662 -129.5625,-24.5 -0.59909,-0.283146 -1.28983,-0.348406 -1.9375,-0.21875 z"
     id="path3610" />
  <path
     sodipodi:nodetypes="cccscccccsccc"
     d="m 299.36814,552.79365 0,0 c 87.57849,-60.48622 234.86567,-71.30416 236.1719,-209.53289 0.62341,-61.98162 -36.26078,-81.56678 -49.04661,-158.18473 -5.84658,-35.03514 25.93859,-99.834935 25.93859,-99.834935 l -61.067,-46.035909 C 414.77305,62.373172 346.03301,76.290957 288.27326,28.720954 232.49025,78.52803 163.23714,67.171581 125.73251,45.378908 L 66.579838,93.646237 c 0,0 34.391022,63.571493 29.9707,98.797203 -9.666746,77.03468 -45.728329,97.97381 -42.58992,159.88557 6.915079,138.07616 154.530342,143.42038 244.497622,200.61111 l 0,0"
     style="opacity:0.1;fill:#ffffff;fill-opacity:1;fill-rule:evenodd;stroke:#ffffff;stroke-width:9.54832554;stroke-linecap:round;stroke-linejoin:round;stroke-miterlimit:4;stroke-opacity:1;stroke-dasharray:none"
     id="path4295" />
</svg>

<svg width="580" height="580" viewBox="0 0 580 580" fill="none" xmlns="http://www.w3.org/2000/svg">
<g clip-path="url(#clip0)">
<path d="M66.275 1.76802C24.94 1.76802 1.704 23.139 1.704 66.804V516.927C1.704 557.771 22.6 579.156 63.896 579.156H515.92C557.227 579.156 578.149 558.842 578.149 516.927V66.804C578.149 24.203 557.227 1.76802 514.628 1.76802C514.624 1.76802 66.133 1.62502 66.275 1.76802Z" fill="#111111" stroke="#EEEEEE" stroke-width="3.408"/>
<path d="M178.551 226.45C179.682 235.287 187.016 241.837 194.681 240.855L202.045 239.912C209.71 238.931 215.156 230.746 214.025 221.908L210.163 191.741C209.031 182.904 201.698 176.355 194.033 177.336L186.669 178.279C179.004 179.26 173.557 187.446 174.688 196.283L178.551 226.45V226.45ZM192.861 224.268C188.925 220.753 186.163 199.183 189.087 194.79C192.01 190.397 191.917 190.409 195.853 193.923C199.788 197.438 202.55 219.008 199.627 223.402C196.703 227.795 196.797 227.783 192.861 224.268V224.268Z" fill="white"/>
<path d="M259.935 142.037C267.539 147.48 277.649 146.916 282.173 140.798L286.519 134.92C291.043 128.802 288.475 119.164 280.871 113.722L254.914 95.144C247.31 89.7019 237.2 90.2654 232.676 96.3837L228.33 102.262C223.806 108.38 226.374 118.017 233.978 123.459L259.935 142.037ZM268.11 130.368C262.684 130.67 244.124 117.387 242.746 112.214C241.368 107.042 241.313 107.116 246.739 106.814C252.165 106.511 270.725 119.795 272.103 124.967C273.481 130.14 273.536 130.065 268.11 130.368V130.368Z" fill="white"/>
<path d="M235.909 119.666C244.785 118.903 251.634 111.848 250.972 104.149L250.61 111.182C249.948 103.483 241.996 97.7003 233.12 98.4634L202.818 101.069C193.941 101.832 187.093 108.887 187.755 116.586L188.116 109.553C188.778 117.252 196.73 123.034 205.607 122.271L235.909 119.666V119.666ZM234.323 105.278C230.647 109.064 208.981 110.927 204.713 107.823C200.446 104.72 200.728 119.243 204.404 115.457C208.079 111.671 229.745 109.808 234.013 112.911C238.281 116.015 237.998 101.491 234.323 105.278Z" fill="white"/>
<path d="M207.308 126.381C212.907 118.893 212.554 108.773 206.532 104.122L200.746 99.6548C194.723 95.0046 185.034 97.371 179.435 104.86L160.32 130.425C154.72 137.913 155.073 148.033 161.096 152.683L166.882 157.151C172.905 161.801 182.593 159.435 188.193 151.946L207.308 126.381ZM195.811 117.965C196 123.396 182.333 141.675 177.133 142.946C171.933 144.216 172.006 144.272 171.817 138.841C171.627 133.409 185.295 115.13 190.495 113.86C195.695 112.59 195.621 112.534 195.811 117.965Z" fill="white"/>
<path d="M178.135 185.553C181.085 193.96 189.623 198.835 196.915 196.276L190.013 197.678C197.305 195.119 200.924 185.978 197.974 177.571L187.904 148.873C184.954 140.466 176.416 135.59 169.124 138.149L176.026 136.748C168.734 139.306 165.115 148.448 168.064 156.855L178.135 185.553V185.553ZM191.675 180.433C187.092 177.817 179.892 157.297 181.835 152.391C183.777 147.485 169.782 151.375 174.364 153.992C178.947 156.609 186.147 177.128 184.204 182.034C182.262 186.941 196.257 183.05 191.675 180.433V180.433Z" fill="white"/>
<path d="M136.704 255.341C131.194 258.548 133.163 269.879 134.475 275.848C138.129 285.005 153.395 296.361 157.222 293.396C187.977 278.63 217.135 290.389 231.901 321.144C246.667 351.898 236.899 384.033 206.144 398.799C193.919 404.669 182.452 396.798 171.206 404.591C160.276 412.163 156.875 420.544 156.421 428.48C155.94 436.88 157.215 449.346 173.771 452.756C190.775 456.257 202.364 451.8 218.812 443.903C269.882 419.382 293.91 354.215 269.389 303.145C244.869 252.074 187.774 230.82 136.704 255.341V255.341Z" fill="white"/>
<path opacity="0.8" d="M134.134 259.349C85.4946 282.702 64.768 341.537 88.1214 390.177C105.3 425.956 139.336 451.014 176.752 450.118L180.063 405.526C155.219 412.061 136.171 402.942 123.045 375.605C107.112 342.42 117.818 305.666 151.004 289.732C160.244 285.296 165.412 287.388 176.364 286.302L169.454 249.988C157.519 250.831 145.539 253.873 134.134 259.349V259.349Z" fill="white"/>
<path fill-rule="evenodd" clip-rule="evenodd" d="M175.394 299.482L190.778 302.027C222.162 308.51 235.995 300.635 240.505 274.69C245.015 248.745 195.89 219.389 195.89 219.389L195.322 219.291C195.322 219.291 139.172 230.348 134.662 256.293C130.153 282.237 140.517 294.319 172.248 298.806L187.589 301.601" fill="white"/>
<path d="M206.328 427.494C206.328 441.904 194.646 453.587 180.235 453.587C165.824 453.587 154.142 441.904 154.142 427.494C154.142 413.083 165.824 401.401 180.235 401.401C194.646 401.401 206.328 413.083 206.328 427.494Z" fill="white"/>
<path d="M334.38 108.612C340.595 107.19 346.899 116.809 350.019 122.064C353.606 131.248 350.218 149.969 345.397 150.42C312.851 160.649 299.593 189.156 309.822 221.703C320.051 254.248 349.139 271.04 381.685 260.811C394.623 256.745 397.618 243.164 411.155 241.17C424.31 239.232 432.519 243.029 438.272 248.513C444.362 254.319 451.949 264.293 442.188 278.094C432.164 292.268 420.656 296.931 403.25 302.402C349.204 319.388 287.136 288.217 270.15 234.171C253.164 180.126 280.335 125.598 334.38 108.612V108.612Z" fill="white"/>
<path opacity="0.8" d="M338.995 109.783C390.468 93.6057 445.8 122.408 461.977 173.881C473.878 211.744 466.144 253.296 438.21 278.205L405.326 247.905C427.932 235.703 435.612 216.03 426.52 187.101C415.482 151.982 382.554 132.458 347.435 143.496C337.657 146.569 335.312 151.627 326.572 158.317L306.808 127.078C316.099 119.54 326.926 113.577 338.995 109.783V109.783Z" fill="white"/>
<path fill-rule="evenodd" clip-rule="evenodd" d="M336.285 167.278L326.791 179.647C308.302 205.823 292.82 209.523 271.802 193.659C250.783 177.795 266.599 122.795 266.599 122.795L266.946 122.336C266.946 122.336 315.503 92.048 336.521 107.912C357.54 123.777 358.226 139.68 338.121 164.636L328.828 177.158" fill="white"/>
<path d="M401.155 281.89C411 292.413 427.512 292.963 438.036 283.117C448.559 273.271 449.108 256.759 439.262 246.236C429.417 235.713 412.905 235.164 402.382 245.01C391.859 254.855 391.309 271.367 401.155 281.89Z" fill="white"/>
<path d="M287.688 25.0625C272.412 37.0087 256.015 48.3913 237.11 53.7123C201.202 65.1078 160.7 60.4141 127.75 42.4375C119.764 41.8919 115.588 50.3164 109.233 53.7022C94.1434 66.236 78.3064 78.1034 64.125 91.5938C61.5376 97.3167 67.9416 101.78 68.8898 107.172C82.453 136.986 97.2624 169.305 91.2812 202.906C85.1756 245.722 58.8386 282.564 51.2007 325.052C42.7079 379.932 67.3535 439.479 114.858 469.239C169.949 507.543 237.75 520.565 294.875 555C302.553 558.628 308.442 550.186 314.879 547.612C369.283 514.623 433.469 499.051 483.875 458.969C512.761 437.374 532.203 404.162 537.655 368.481C543.401 334.971 536.999 299.933 520.75 270.216C505.238 237.031 487.307 202.169 490.749 164.414C493.438 137.047 505.98 111.952 515.594 86.5625C515.704 79.7672 507.415 78.3 503.818 73.9105C486.814 61.0164 470.135 46.8631 451.667 36.1633C440.187 38.6692 430.923 47.6708 419.187 49.7813C375.662 64.1822 324.86 54.9799 289.625 25.2813C289.026 24.9981 288.335 24.9329 287.688 25.0625Z" stroke="white" stroke-width="16" stroke-linecap="round" stroke-linejoin="round"/>
<g opacity="0.1">
<path fill-rule="evenodd" clip-rule="evenodd" d="M299.368 552.794C386.947 492.307 534.234 481.49 535.54 343.261C536.163 281.279 499.279 261.694 486.493 185.076C480.647 150.041 512.432 85.2411 512.432 85.2411L451.365 39.2052C414.773 62.3732 346.033 76.291 288.273 28.7209C232.49 78.528 163.237 67.1716 125.733 45.3789L66.5798 93.6462C66.5798 93.6462 100.971 157.218 96.5505 192.443C86.8838 269.478 50.8222 290.417 53.9606 352.329C60.8757 490.405 208.491 495.749 298.458 552.94" fill="white"/>
<path d="M299.368 552.794C386.947 492.307 534.234 481.49 535.54 343.261C536.163 281.279 499.279 261.694 486.493 185.076C480.647 150.041 512.432 85.2411 512.432 85.2411L451.365 39.2052C414.773 62.3732 346.033 76.291 288.273 28.7209C232.49 78.528 163.237 67.1716 125.733 45.3789L66.5798 93.6462C66.5798 93.6462 100.971 157.218 96.5505 192.443C86.8838 269.478 50.8222 290.417 53.9606 352.329C60.8757 490.405 208.491 495.749 298.458 552.94" stroke="white" stroke-width="9.54833" stroke-linecap="round" stroke-linejoin="round"/>
</g>
</g>
<defs>
<clipPath id="clip0">
<path d="M0 0H580V580H0V0Z" fill="white"/>
</clipPath>
</defs>
</svg>
